X:53
T:B053-  Cam'st thou not from Newcastle?
Q:1/4=120
L:1/4
M:C|
K:G
BdGA|G3/2A/2GD|BdGd|ef2f/2d/2|\
dBAG|Ee2d/2c/2|dBA3/2G/2|G3e/2f/2|\
g/2f/2e/2d/2g3/2B/2|Ag2A|G3/2A/2BF|Ee2f|\
g/2f/2e/2d/2g3/2B/2|AAc3/2d/2|eBA3/2G/2|G4|]

